X: 370
T: 371. Christ lag in Todesbanden
N: Derived from chor371.krn
C: Johann Sebastian Bach
%%abc-version 2.0
%%abcx-abcm2ps-target-version 5.9.1 (29 Sep 2008)
%%abc-creator hum2abc beta
%%abcx-conversion-date 2019/03/11 17:28:19
%%abc-edited-by Craig Stuart Sapp
%%humdrum-veritas 2260172688
%%humdrum-veritas-data 474736816
%%
%%barnumbers 0
L: 1/8
M: C
%%staves [1 2 3 4]
V: 1 clef=treble
V: 2 clef=treble
V: 3 clef=treble-8
V: 4 clef=bass
K: G
[V:1] B2 [I:setbarnb 1]| 
[V:2] G2 | 
[V:3] ed | 
[V:4] E,2 | 
[V:1] ^A2B^cd2e2 | 
[V:2] F3^A BA/B/^c2 | 
[V:3] ^c2de fg2f | 
[V:4] E,2D,^C, B,,B,2^A, | 
[V:1] d2^c2!fermata!B2BA | 
[V:2] ^cB2^A!fermata!F2F2 | 
[V:3] fB^c/d/e e!fermata!^dB2 | 
[V:4] B,G,E,F,!fermata!B,,2^D,2 | 
[V:1] G2A2BAG2 | 
[V:2] FE2^D/^C/ B,DE2 | 
[V:3] B=c2B/A/ efB2 | 
[V:4] E,2F,2G,F,G,A, | 
[V:1] FEF2!fermata!E2 :|]  
[V:2] E^D/^C/D2!fermata!B,2 :|]  
[V:3] B3A!fermata!G2 :|]  
[V:4] B,2B,,2!fermata!E,2 :|]  
[V:1] z2 [I:setbarnb 5]| 
[V:2] x2 | 
[V:3] x2 | 
[V:4] z2 | 
[V:1] EFG2A2EF | 
[V:2] B,2E2E3B, | 
[V:3] GAB2E2A2 | 
[V:4] E,3=D, =C,B,, ^C,^D, | 
[V:1] G2A2!fermata!B2B2 | 
[V:2] B,C/D/E2!fermata!^D2F2 | 
[V:3] GA/B/c2!fermata!F2^d2 | 
[V:4] E,D,C,2!fermata!B,,2B,A, | 
[V:1] e2=d2e2fe | 
[V:2] B2A2B^G^c2 | 
[V:3] ef/g/ af Be ^cB/^A/ | 
[V:4] G,F,/E,/ F,A, ^G,^C ^A,F, | 
[V:1] d2^c2!fermata!B2c2 | 
[V:2] ^cB2^A!fermata!F2=G2 | 
[V:3] Bd gf!fermata!d2e2 | 
[V:4] B,=G, E,F,!fermata!B,,2E,2 | 
[V:1] d=c Bcd2A2 | 
[V:2] F2D2D4 | 
[V:3] =A2BAG3F | 
[V:4] D,2G,,A,, B,,C,D,2- | 
[V:1] G2F2!fermata!E4 | 
[V:2] E3D!fermata!^C4 | 
[V:3] B2A2!fermata!A4 | 
[V:4] D,^C, D,F,!fermata!A,4 | 
[V:1] B2A2G2F2 | 
[V:2] ^DE EF B,E2D | 
[V:3] B2^c^d eG =cB/A/ | 
[V:4] A,G,2F, E,C, A,,B,, | 
[V:1] !fermata!E6 |]  
[V:2] !fermata!B,6 |]  
[V:3] !fermata!^G6 |]  
[V:4] !fermata!E,6 |]  
